X:1
T:Title
%%score { ( 1 4 ) | ( 2 3 ) }
L:1/8
M:6/8
K:G
V:1 treble nm="Grand Piano"
V:4 treble 
V:2 bass 
V:3 bass 
V:1
 z3 z2[Q:1/4=81] D | [DB]AG [EG]FE | E3 [B,D]2 [B,D] | [DB][CA][B,G] [G,^CE]FG |[M:5/8] A-A- A3 | %5
[M:1/8] D/D/ |[M:3/4] [Ec]B AA GA | [DB]3 [B,G]2 [DB] | [^CA]B A[EG] FE |[M:5/8] D-D- D3 | %10
[M:1/8][Q:1/4=90] D |[M:3/4] DE FG AG | B3 G2 B | [Fd][FA] [FA][FA] [EG][FA] |[M:5/8] B-B- B3 | %15
[M:1/8] B/B/ |[M:3/4] Bc B[DB] [CA]G | A3 E2 E | D<B BB/A/- AD |[M:5/8] [B,G]-[B,G]- [B,G]3 |] %20
V:2
 z3 z2 B, | z CB, z DC | [^C,G,_B,]3 [G,,D,G,]2 [G,,G,] | G,,A,,B,, z [F,^C][E,C] | %4
[M:5/8] [D,F,D]-[D,F,D]- [D,F,D]3 |[M:1/8] D,/D,/ |[M:3/4] z D CC [E,B,][F,C] | %7
 [G,,G,]3 [G,,D,G,]2 [G,,G,] | z ^C CE, [A,D][G,C] |[M:5/8] [D,F,]-[D,F,]- [D,F,]3 |[M:1/8] D, | %11
[M:3/4] D,E, F,G, A,G, | B,3 G,2 [G,DG] | [D,D][D,D] [D,D][D,C] [D,B,][D,A,] | %14
[M:5/8][K:treble] [G,G]-[G,G]- [G,G]3 |[M:1/8] [G,D]/[G,D]/ | %16
[M:3/4][K:bass] [G,D][G,E] [G,D][G,,G,] [A,,F,][B,,G,B,] | [C,E,C]3 [C,G,C]2 [^C,G,_B,] | %18
 [D,G,B,]<[D,G,D] [D,G,D][D,F,D]/[D,F,C]/- [D,F,C][D,A,C] |[M:5/8] [G,,G,]-[G,,G,]- [G,,G,]3 |] %20
V:3
 x6 | [G,,G,]3 [C,G,]3 | x6 | G,3 A,,3 |[M:5/8] x5 |[M:1/8] x |[M:3/4] D,3 D,3 | x6 | %8
 [A,,E,]3 A,,3 |[M:5/8] x5 |[M:1/8] x |[M:3/4] x6 | x6 | x6 |[M:5/8][K:treble] x5 |[M:1/8] x | %16
[M:3/4][K:bass] x6 | x6 | x6 |[M:5/8] x5 |] %20
V:4
 x6 | x6 | x6 | x6 |[M:5/8] x5 |[M:1/8] x |[M:3/4] x6 | x6 | x6 |[M:5/8] z z2 C2 |[M:1/8] x | %11
[M:3/4] x6 | x6 | x6 |[M:5/8] x5 |[M:1/8] x |[M:3/4] x6 | x6 | x6 |[M:5/8] x5 |] %20

